images/3246490.svg

<?xml version="1.0" encoding="UTF-8"?>
<svg xmlns="http://www.w3.org/2000/svg" xmlns:xlink="http://www.w3.org/1999/xlink" width="300pt" height="300pt" viewBox="0 0 300 300" version="1.1">
<defs>
<g>
<symbol overflow="visible" id="glyph0-0">
<path style="stroke:none;" d="M 0.640625 2.296875 L 0.640625 -9.171875 L 7.140625 -9.171875 L 7.140625 2.296875 Z M 1.375 1.578125 L 6.421875 1.578125 L 6.421875 -8.4375 L 1.375 -8.4375 Z M 1.375 1.578125 "/>
</symbol>
<symbol overflow="visible" id="glyph0-1">
<path style="stroke:none;" d="M 1.28125 -9.484375 L 3 -9.484375 L 7.203125 -1.546875 L 7.203125 -9.484375 L 8.453125 -9.484375 L 8.453125 0 L 6.71875 0 L 2.515625 -7.921875 L 2.515625 0 L 1.28125 0 Z M 1.28125 -9.484375 "/>
</symbol>
<symbol overflow="visible" id="glyph0-2">
<path style="stroke:none;" d="M 1.28125 -9.484375 L 2.5625 -9.484375 L 2.5625 -5.59375 L 7.21875 -5.59375 L 7.21875 -9.484375 L 8.5 -9.484375 L 8.5 0 L 7.21875 0 L 7.21875 -4.515625 L 2.5625 -4.515625 L 2.5625 0 L 1.28125 0 Z M 1.28125 -9.484375 "/>
</symbol>
<symbol overflow="visible" id="glyph0-3">
<path style="stroke:none;" d="M 6.953125 -9.171875 L 6.953125 -7.921875 C 6.472656 -8.148438 6.015625 -8.320312 5.578125 -8.4375 C 5.148438 -8.550781 4.734375 -8.609375 4.328125 -8.609375 C 3.628906 -8.609375 3.085938 -8.472656 2.703125 -8.203125 C 2.328125 -7.929688 2.140625 -7.546875 2.140625 -7.046875 C 2.140625 -6.628906 2.265625 -6.3125 2.515625 -6.09375 C 2.773438 -5.882812 3.253906 -5.710938 3.953125 -5.578125 L 4.734375 -5.421875 C 5.679688 -5.234375 6.382812 -4.910156 6.84375 -4.453125 C 7.300781 -3.992188 7.53125 -3.378906 7.53125 -2.609375 C 7.53125 -1.691406 7.222656 -0.992188 6.609375 -0.515625 C 5.992188 -0.046875 5.085938 0.1875 3.890625 0.1875 C 3.441406 0.1875 2.960938 0.132812 2.453125 0.03125 C 1.953125 -0.0703125 1.429688 -0.222656 0.890625 -0.421875 L 0.890625 -1.734375 C 1.410156 -1.441406 1.921875 -1.222656 2.421875 -1.078125 C 2.921875 -0.929688 3.410156 -0.859375 3.890625 -0.859375 C 4.628906 -0.859375 5.195312 -1 5.59375 -1.28125 C 5.988281 -1.570312 6.1875 -1.984375 6.1875 -2.515625 C 6.1875 -2.984375 6.039062 -3.347656 5.75 -3.609375 C 5.46875 -3.867188 5.003906 -4.066406 4.359375 -4.203125 L 3.578125 -4.359375 C 2.617188 -4.546875 1.925781 -4.84375 1.5 -5.25 C 1.070312 -5.65625 0.859375 -6.21875 0.859375 -6.9375 C 0.859375 -7.78125 1.148438 -8.441406 1.734375 -8.921875 C 2.328125 -9.410156 3.144531 -9.65625 4.1875 -9.65625 C 4.625 -9.65625 5.070312 -9.613281 5.53125 -9.53125 C 6 -9.445312 6.472656 -9.328125 6.953125 -9.171875 Z M 6.953125 -9.171875 "/>
</symbol>
</g>
</defs>
<g id="surface42469">
<rect x="0" y="0" width="300" height="300" style="fill:rgb(100%,100%,100%);fill-opacity:1;stroke:none;"/>
<path style="fill:none;stroke-width:1.2;stroke-linecap:butt;stroke-linejoin:miter;stroke:rgb(0%,0%,0%);stroke-opacity:1;stroke-miterlimit:10;" d="M 35.25 207.96875 L 35.25 174.84375 "/>
<path style="fill:none;stroke-width:1.2;stroke-linecap:butt;stroke-linejoin:miter;stroke:rgb(0%,0%,0%);stroke-opacity:1;stroke-miterlimit:10;" d="M 43.042969 204.65625 L 43.042969 178.15625 "/>
<path style="fill:none;stroke-width:1.2;stroke-linecap:butt;stroke-linejoin:miter;stroke:rgb(0%,0%,0%);stroke-opacity:1;stroke-miterlimit:10;" d="M 63.9375 224.53125 L 35.25 207.96875 "/>
<path style="fill:none;stroke-width:1.2;stroke-linecap:butt;stroke-linejoin:miter;stroke:rgb(0%,0%,0%);stroke-opacity:1;stroke-miterlimit:10;" d="M 35.25 174.84375 L 63.9375 158.28125 "/>
<path style="fill:none;stroke-width:1.2;stroke-linecap:butt;stroke-linejoin:miter;stroke:rgb(0%,0%,0%);stroke-opacity:1;stroke-miterlimit:10;" d="M 63.9375 158.28125 L 92.625 174.84375 "/>
<path style="fill:none;stroke-width:1.2;stroke-linecap:butt;stroke-linejoin:miter;stroke:rgb(0%,0%,0%);stroke-opacity:1;stroke-miterlimit:10;" d="M 62.910156 166.6875 L 85.859375 179.9375 "/>
<path style="fill:none;stroke-width:1.2;stroke-linecap:butt;stroke-linejoin:miter;stroke:rgb(0%,0%,0%);stroke-opacity:1;stroke-miterlimit:10;" d="M 92.625 174.84375 L 92.625 207.96875 "/>
<path style=" stroke:none;fill-rule:nonzero;fill:rgb(0%,0%,0%);fill-opacity:1;" d="M 121.3125 158.28125 L 89.703125 169.78125 L 95.546875 179.90625 Z M 121.3125 158.28125 "/>
<path style="fill:none;stroke-width:1.2;stroke-linecap:butt;stroke-linejoin:miter;stroke:rgb(0%,0%,0%);stroke-opacity:1;stroke-miterlimit:10;" d="M 92.625 207.96875 L 63.9375 224.53125 "/>
<path style="fill:none;stroke-width:1.2;stroke-linecap:butt;stroke-linejoin:miter;stroke:rgb(0%,0%,0%);stroke-opacity:1;stroke-miterlimit:10;" d="M 85.859375 202.875 L 62.910156 216.125 "/>
<path style="fill:none;stroke-width:1.2;stroke-linecap:butt;stroke-linejoin:miter;stroke:rgb(0%,0%,0%);stroke-opacity:1;stroke-miterlimit:10;" d="M 121.3125 158.28125 L 135.65625 166.5625 "/>
<path style="fill:none;stroke-width:1.2;stroke-linecap:butt;stroke-linejoin:miter;stroke:rgb(0%,0%,100%);stroke-opacity:1;stroke-miterlimit:10;" d="M 135.65625 166.5625 L 150 174.84375 "/>
<path style="fill:none;stroke-width:1.2;stroke-linecap:butt;stroke-linejoin:miter;stroke:rgb(0%,0%,100%);stroke-opacity:1;stroke-miterlimit:10;" d="M 121.3125 125.15625 L 121.3125 141.71875 "/>
<path style="fill:none;stroke-width:1.2;stroke-linecap:butt;stroke-linejoin:miter;stroke:rgb(0%,0%,0%);stroke-opacity:1;stroke-miterlimit:10;" d="M 121.3125 141.71875 L 121.3125 158.28125 "/>
<path style="fill:none;stroke-width:1.2;stroke-linecap:butt;stroke-linejoin:miter;stroke:rgb(0%,0%,100%);stroke-opacity:1;stroke-miterlimit:10;" d="M 150 174.84375 L 164.34375 166.5625 "/>
<path style="fill:none;stroke-width:1.2;stroke-linecap:butt;stroke-linejoin:miter;stroke:rgb(0%,0%,0%);stroke-opacity:1;stroke-miterlimit:10;" d="M 164.34375 166.5625 L 178.6875 158.28125 "/>
<path style=" stroke:none;fill-rule:nonzero;fill:rgb(100%,100%,100%);fill-opacity:1;" d="M 140 166.84375 L 160 166.84375 L 160 182.84375 L 140 182.84375 Z M 140 166.84375 "/>
<g style="fill:rgb(0%,0%,100%);fill-opacity:1;">
  <use xlink:href="#glyph0-1" x="140" y="179.219727"/>
  <use xlink:href="#glyph0-2" x="149.969727" y="179.219727"/>
</g>
<path style="fill:none;stroke-width:1.2;stroke-linecap:butt;stroke-linejoin:miter;stroke:rgb(0%,0%,0%);stroke-opacity:1;stroke-miterlimit:10;" d="M 178.6875 158.28125 L 178.6875 141.71875 "/>
<path style="fill:none;stroke-width:1.2;stroke-linecap:butt;stroke-linejoin:miter;stroke:rgb(80%,80%,0%);stroke-opacity:1;stroke-miterlimit:10;" d="M 178.6875 141.71875 L 178.6875 125.15625 "/>
<path style=" stroke:none;fill-rule:nonzero;fill:rgb(0%,0%,0%);fill-opacity:1;" d="M 178.6875 158.28125 L 204.453125 179.90625 L 210.296875 169.78125 Z M 178.6875 158.28125 "/>
<path style="fill:none;stroke-width:1.2;stroke-linecap:butt;stroke-linejoin:miter;stroke:rgb(80%,80%,0%);stroke-opacity:1;stroke-miterlimit:10;" d="M 178.6875 125.15625 L 164.34375 116.875 "/>
<path style="fill:none;stroke-width:1.2;stroke-linecap:butt;stroke-linejoin:miter;stroke:rgb(0%,0%,0%);stroke-opacity:1;stroke-miterlimit:10;" d="M 164.34375 116.875 L 150 108.59375 "/>
<path style=" stroke:none;fill-rule:nonzero;fill:rgb(100%,100%,100%);fill-opacity:1;" d="M 174.6875 117.15625 L 183.6875 117.15625 L 183.6875 133.15625 L 174.6875 133.15625 Z M 174.6875 117.15625 "/>
<g style="fill:rgb(80%,80%,0%);fill-opacity:1;">
  <use xlink:href="#glyph0-3" x="174.6875" y="129.532227"/>
</g>
<path style="fill:none;stroke-width:1.2;stroke-linecap:butt;stroke-linejoin:miter;stroke:rgb(0%,0%,0%);stroke-opacity:1;stroke-miterlimit:10;" d="M 153.898438 108.59375 L 153.898438 92.03125 "/>
<path style="fill:none;stroke-width:1.2;stroke-linecap:butt;stroke-linejoin:miter;stroke:rgb(80%,80%,0%);stroke-opacity:1;stroke-miterlimit:10;" d="M 153.898438 92.03125 L 153.898438 75.46875 "/>
<path style="fill:none;stroke-width:1.2;stroke-linecap:butt;stroke-linejoin:miter;stroke:rgb(0%,0%,0%);stroke-opacity:1;stroke-miterlimit:10;" d="M 146.101562 108.59375 L 146.101562 92.03125 "/>
<path style="fill:none;stroke-width:1.2;stroke-linecap:butt;stroke-linejoin:miter;stroke:rgb(80%,80%,0%);stroke-opacity:1;stroke-miterlimit:10;" d="M 146.101562 92.03125 L 146.101562 75.46875 "/>
<path style="fill:none;stroke-width:1.2;stroke-linecap:butt;stroke-linejoin:miter;stroke:rgb(0%,0%,0%);stroke-opacity:1;stroke-miterlimit:10;" d="M 150 108.59375 L 135.65625 116.875 "/>
<path style="fill:none;stroke-width:1.2;stroke-linecap:butt;stroke-linejoin:miter;stroke:rgb(0%,0%,100%);stroke-opacity:1;stroke-miterlimit:10;" d="M 135.65625 116.875 L 121.3125 125.15625 "/>
<path style=" stroke:none;fill-rule:nonzero;fill:rgb(100%,100%,100%);fill-opacity:1;" d="M 146 67.46875 L 155 67.46875 L 155 83.46875 L 146 83.46875 Z M 146 67.46875 "/>
<g style="fill:rgb(80%,80%,0%);fill-opacity:1;">
  <use xlink:href="#glyph0-3" x="146" y="79.844727"/>
</g>
<path style=" stroke:none;fill-rule:nonzero;fill:rgb(100%,100%,100%);fill-opacity:1;" d="M 111.3125 117.15625 L 131.3125 117.15625 L 131.3125 133.15625 L 111.3125 133.15625 Z M 111.3125 117.15625 "/>
<g style="fill:rgb(0%,0%,100%);fill-opacity:1;">
  <use xlink:href="#glyph0-1" x="111.3125" y="129.532227"/>
  <use xlink:href="#glyph0-2" x="121.282227" y="129.532227"/>
</g>
<path style="fill:none;stroke-width:1.2;stroke-linecap:butt;stroke-linejoin:miter;stroke:rgb(0%,0%,0%);stroke-opacity:1;stroke-miterlimit:10;" d="M 207.375 174.84375 L 207.375 207.96875 "/>
<path style="fill:none;stroke-width:1.2;stroke-linecap:butt;stroke-linejoin:miter;stroke:rgb(0%,0%,0%);stroke-opacity:1;stroke-miterlimit:10;" d="M 215.167969 178.15625 L 215.167969 204.65625 "/>
<path style="fill:none;stroke-width:1.2;stroke-linecap:butt;stroke-linejoin:miter;stroke:rgb(0%,0%,0%);stroke-opacity:1;stroke-miterlimit:10;" d="M 236.0625 158.28125 L 207.375 174.84375 "/>
<path style="fill:none;stroke-width:1.2;stroke-linecap:butt;stroke-linejoin:miter;stroke:rgb(0%,0%,0%);stroke-opacity:1;stroke-miterlimit:10;" d="M 207.375 207.96875 L 236.0625 224.53125 "/>
<path style="fill:none;stroke-width:1.2;stroke-linecap:butt;stroke-linejoin:miter;stroke:rgb(0%,0%,0%);stroke-opacity:1;stroke-miterlimit:10;" d="M 236.0625 224.53125 L 264.75 207.96875 "/>
<path style="fill:none;stroke-width:1.2;stroke-linecap:butt;stroke-linejoin:miter;stroke:rgb(0%,0%,0%);stroke-opacity:1;stroke-miterlimit:10;" d="M 235.035156 216.125 L 257.984375 202.875 "/>
<path style="fill:none;stroke-width:1.2;stroke-linecap:butt;stroke-linejoin:miter;stroke:rgb(0%,0%,0%);stroke-opacity:1;stroke-miterlimit:10;" d="M 264.75 207.96875 L 264.75 174.84375 "/>
<path style="fill:none;stroke-width:1.2;stroke-linecap:butt;stroke-linejoin:miter;stroke:rgb(0%,0%,0%);stroke-opacity:1;stroke-miterlimit:10;" d="M 264.75 174.84375 L 236.0625 158.28125 "/>
<path style="fill:none;stroke-width:1.2;stroke-linecap:butt;stroke-linejoin:miter;stroke:rgb(0%,0%,0%);stroke-opacity:1;stroke-miterlimit:10;" d="M 257.984375 179.9375 L 235.035156 166.6875 "/>
</g>
</svg>

<svg xmlns="http://www.w3.org/2000/svg" xmlns:xlink="http://www.w3.org/1999/xlink" width="300pt" height="300pt" viewBox="0 0 300 300"><defs><symbol overflow="visible"><path d="M.64 2.297v-11.47h6.5v11.47zm.735-.72h5.047V-8.436H1.375zm0 0"/></symbol><symbol overflow="visible" id="a"><path d="M1.28-9.484H3l4.203 7.937v-7.937h1.25V0H6.72L2.515-7.922V0H1.28zm0 0"/></symbol><symbol overflow="visible" id="b"><path d="M1.28-9.484h1.282v3.89H7.22v-3.89H8.5V0H7.22v-4.516H2.562V0H1.28zm0 0"/></symbol><symbol overflow="visible" id="c"><path d="M6.953-9.172v1.25c-.48-.226-.937-.398-1.375-.516-.43-.113-.844-.17-1.25-.17-.7 0-1.242.135-1.625.405-.375.273-.562.656-.562 1.156 0 .418.126.734.376.953.257.21.738.383 1.437.516l.78.156c.947.188 1.65.512 2.11.97.458.46.688 1.073.688 1.843 0 .92-.307 1.618-.92 2.094-.618.47-1.524.704-2.72.704-.45 0-.93-.055-1.437-.157C1.953-.07 1.43-.222.89-.42v-1.312c.52.293 1.032.51 1.532.656.5.148.988.22 1.47.22.737 0 1.303-.142 1.702-.423.394-.29.593-.704.593-1.236 0-.468-.148-.832-.437-1.093-.28-.257-.746-.456-1.39-.593l-.782-.156c-.96-.187-1.652-.484-2.078-.89-.43-.406-.64-.97-.64-1.688 0-.843.288-1.503.874-1.984.594-.488 1.41-.734 2.454-.734.437 0 .882.043 1.343.125.47.085.943.202 1.423.358zm0 0"/></symbol></defs><g><path fill="#fff" d="M0 0h300v300H0z"/><path d="M35.25 207.97v-33.126M43.043 204.656v-26.5M63.938 224.53L35.25 207.97M35.25 174.844l28.688-16.563M63.938 158.28l28.687 16.564M62.91 166.688l22.95 13.25M92.625 174.844v33.125" stroke-width="1.2" stroke="#000" stroke-miterlimit="10" fill="none"/><path d="M121.313 158.28l-31.61 11.5 5.844 10.126zm0 0"/><path d="M92.625 207.97l-28.688 16.56M85.86 202.875l-22.95 13.25M121.313 158.28l14.343 8.282" stroke-width="1.2" stroke="#000" stroke-miterlimit="10" fill="none"/><path d="M135.656 166.563l14.344 8.28M121.313 125.156v16.563" stroke-width="1.2" stroke="#00f" stroke-miterlimit="10" fill="none"/><path d="M121.313 141.72v16.56" stroke-width="1.2" stroke="#000" stroke-miterlimit="10" fill="none"/><path d="M150 174.844l14.344-8.28" stroke-width="1.2" stroke="#00f" stroke-miterlimit="10" fill="none"/><path d="M164.344 166.563l14.344-8.282" stroke-width="1.2" stroke="#000" stroke-miterlimit="10" fill="none"/><path d="M140 166.844h20v16h-20zm0 0" fill="#fff"/><g fill="#00f"><use xlink:href="#a" x="140" y="179.22"/><use xlink:href="#b" x="149.97" y="179.22"/></g><path d="M178.688 158.28v-16.56" stroke-width="1.2" stroke="#000" stroke-miterlimit="10" fill="none"/><path d="M178.688 141.72v-16.564" stroke-width="1.2" stroke="#cc0" stroke-miterlimit="10" fill="none"/><path d="M178.688 158.28l25.765 21.626 5.844-10.125zm0 0"/><path d="M178.688 125.156l-14.344-8.28" stroke-width="1.2" stroke="#cc0" stroke-miterlimit="10" fill="none"/><path d="M164.344 116.875L150 108.595" stroke-width="1.2" stroke="#000" stroke-miterlimit="10" fill="none"/><path d="M174.688 117.156h9v16h-9zm0 0" fill="#fff"/><use xlink:href="#c" x="174.688" y="129.532" fill="#cc0"/><path d="M153.898 108.594V92.03" stroke-width="1.2" stroke="#000" stroke-miterlimit="10" fill="none"/><path d="M153.898 92.03V75.47" stroke-width="1.2" stroke="#cc0" stroke-miterlimit="10" fill="none"/><path d="M146.102 108.594V92.03" stroke-width="1.2" stroke="#000" stroke-miterlimit="10" fill="none"/><path d="M146.102 92.03V75.47" stroke-width="1.2" stroke="#cc0" stroke-miterlimit="10" fill="none"/><path d="M150 108.594l-14.344 8.28" stroke-width="1.2" stroke="#000" stroke-miterlimit="10" fill="none"/><path d="M135.656 116.875l-14.344 8.28" stroke-width="1.2" stroke="#00f" stroke-miterlimit="10" fill="none"/><path d="M146 67.47h9v16h-9zm0 0" fill="#fff"/><use xlink:href="#c" x="146" y="79.845" fill="#cc0"/><path d="M111.313 117.156h20v16h-20zm0 0" fill="#fff"/><g fill="#00f"><use xlink:href="#a" x="111.313" y="129.532"/><use xlink:href="#b" x="121.282" y="129.532"/></g><path d="M207.375 174.844v33.125M215.168 178.156v26.5M236.063 158.28l-28.688 16.564M207.375 207.97l28.688 16.56M236.063 224.53l28.687-16.56M235.035 216.125l22.95-13.25M264.75 207.97v-33.126M264.75 174.844l-28.688-16.563M257.984 179.938l-22.95-13.25" stroke-width="1.2" stroke="#000" stroke-miterlimit="10" fill="none"/></g></svg>
